icons/1_Primary/CrowdSec.svg

<svg xmlns="http://www.w3.org/2000/svg" width="1024" height="1024" fill="none">
   <g clip-path="url(#a)">
      <path fill="#54688C" d="M512 1024c282.77 0 512-229.23 512-512S794.77 0 512 0 0 229.23 0 512s229.23 512 512 512Z"/>
      <path fill="#fff" d="M352 509.2a38.23 38.23 0 0 0 19.57-5.2c-1.79 10.09-7.9 17.95-15.61 20 .09 5.95-.08 11.86-.56 17.68-.59 7.12-.89 14.23-2 20.89-.78 4.71-2 4.91-2.86 0-1.13-6.62-1.4-13.77-2-20.89-.48-5.82-.65-11.73-.55-17.68-7.71-2-13.83-9.91-15.61-20a38.218 38.218 0 0 0 19.62 5.2ZM668 524c-.1 5.95.07 11.86.55 17.68.59 7.12.86 14.28 2 20.89.84 4.91 2.08 4.71 2.86 0 1.1-6.66 1.4-13.77 2-20.89.48-5.82.65-11.73.55-17.68 7.71-2 13.82-9.91 15.61-20a39.395 39.395 0 0 1-39.17 0c1.81 10.07 7.93 17.93 15.6 20Zm-180.87-89.64c2.23 12.57 9.85 22.38 19.46 24.93-.12 7.42.09 14.79.69 22 .73 8.88 1.07 17.8 2.48 26.05 1 6.13 2.6 5.88 3.56 0 1.37-8.3 1.75-17.17 2.48-26.05.6-7.25.81-14.63.69-22 9.61-2.55 17.24-12.36 19.47-24.93a49.133 49.133 0 0 1-48.84 0h.01ZM623 720.95c.987 9.227 1.957 18.347 2.91 27.36-36.42-1.17-74.56-1.79-113.87-1.79-40 0-78.73.64-115.7 1.85.89-9.54 1.81-19.24 2.88-29C409.78 622 422.9 515.7 431.44 478.56h-.07A30.87 30.87 0 0 1 401 452.85a31.555 31.555 0 0 1-.48-4.67c-.3 0-.59.08-.9.1a19.529 19.529 0 0 1-11.87-35.68 30.999 30.999 0 0 1 7.8-59 19.52 19.52 0 0 1 14.9-31.5 31.595 31.595 0 0 1-12.48-11c-7.24-11.41-8.4-62.85 17.33-95.91 10.6-13.63 21-5.41 21.65 3.89 2 28.46 2.26 49.84 9.61 74.2a19.385 19.385 0 0 1 14.335-15.774 19.381 19.381 0 0 1 20.155 6.934 30.81 30.81 0 0 1 61-.08 19.384 19.384 0 0 1 20.144-6.844 19.377 19.377 0 0 1 14.286 15.764c7.35-24.36 7.6-45.74 9.61-74.2.66-9.3 11-17.51 21.65-3.89 25.73 33.06 24.57 84.5 17.33 95.91a31.551 31.551 0 0 1-12.48 11 19.521 19.521 0 0 1 14.9 31.5 30.998 30.998 0 0 1 22.311 45.823A31.001 31.001 0 0 1 635.29 412.6a19.535 19.535 0 0 1 7.582 22.337 19.53 19.53 0 0 1-19.452 13.343c-.31 0-.6-.06-.9-.1A31.203 31.203 0 0 1 622 453a30.87 30.87 0 0 1-29.83 25.51c5.32 23.19 12.09 73.31 19 131.36 4 36.24 7.9 74.84 11.83 111.08Zm-35.38-285.13c9.59-2 16-7.38 19-16.57 2.26-6.77 4.26-13.63 6.1-20.53 1-3.91 1.49-7.88 5.88-9.82.85-.38 1.39-2.33 1.42-3.57.15-5.57.06-11.15.06-17.83-10.79-1.76-21.3-4.09-31.95-5.06-20-1.82-39.86-1-59.07 6.29a43.732 43.732 0 0 1-31.18 0 116.258 116.258 0 0 0-38.22-7c-17.82-.33-35.37 1.29-52.83 6.72 0 6-.12 11.41.09 16.81.05 1.33 1.11 2.65 1.82 3.91 1.74 3 4.08 5.85 5.22 9.1 2.59 7.38 4.35 15 6.93 22.43 2.87 8.22 8.9 13.6 17.45 14.72a189.497 189.497 0 0 0 30 1.94 35.381 35.381 0 0 0 16.67-4.3c-2.76 11.23-5 22.64-7.82 34.06a197.454 197.454 0 0 0-5.31 32.41c-1.34 16.86 9.63 31.39 23.42 31.39h32.41c13.79 0 24.76-14.53 23.42-31.39a197.241 197.241 0 0 0-5.31-32.41c-3.1-12.35-5.33-24.73-8.38-36.87a25.35 25.35 0 0 0 10.4 5.14 87.052 87.052 0 0 0 39.78.43Zm198.38 28a24.827 24.827 0 0 0-21-24.56 15.645 15.645 0 0 0 1.787-16.329A15.649 15.649 0 0 0 753 414a25.324 25.324 0 0 0 10-8.83c5.81-9.15 6.74-50.41-13.9-76.92-8.5-10.93-16.84-4.34-17.37 3.12-1.62 22.82-1.81 40-7.71 59.51a15.534 15.534 0 0 0-11.453-12.648 15.542 15.542 0 0 0-16.157 5.488 24.774 24.774 0 0 0-8.257-15.16A24.776 24.776 0 0 0 672 362.47a24.466 24.466 0 0 0-13.79 4.25 39.877 39.877 0 0 1-9.68 47.58 28.36 28.36 0 0 1-2.87 32.91 91.109 91.109 0 0 1 12.63 3.21c.92.3 1.84.6 2.75.94a35.709 35.709 0 0 0 16.9 2 34.99 34.99 0 0 0 8.1-2c13.59-5.18 27.57-6.28 41.69-5.47 1.894.107 3.79.247 5.69.42 5.14.47 10.25 1.34 15.39 2.27 3.39.61 6.79 1.24 10.23 1.8 0 5.36.07 9.83-.05 14.3v.38c-.1 1-.49 2.22-1.1 2.48a6.704 6.704 0 0 0-3.79 4.42c-.37 1.1-.62 2.28-.93 3.46-1.47 5.53-3.08 11-4.89 16.46a23.623 23.623 0 0 1-1 2.62 18.31 18.31 0 0 1-11.28 9.83l-.23.09h-.1c-.874.282-1.762.519-2.66.71a75.727 75.727 0 0 1-4 .75 69.007 69.007 0 0 1-27.87-1.1 20.5 20.5 0 0 1-7.88-3.78c-.15-.12-.32-.22-.46-.34.88 3.52 1.67 7.07 2.45 10.63.85 3.9 1.69 7.81 2.57 11.73.54 2.4 1.1 4.8 1.7 7.21a157.67 157.67 0 0 1 3.8 21.46c.16 1.51.33 3 .45 4.53.82 10.36-4.16 19.6-11.5 23.37a15.875 15.875 0 0 1-7.28 1.81H659c-8.06 0-14.9-6.2-17.61-14.8a27.304 27.304 0 0 1-1.17-10.38 158.29 158.29 0 0 1 4.26-26c1.87-7.46 3.4-14.92 5.1-22.3.39-1.68.77-3.36 1.18-5a24.958 24.958 0 0 1-5.84 2.36l-.37.12-.28.05a32.637 32.637 0 0 1-6.88.91h-4a167.29 167.29 0 0 1-20.06-1.56c-1.2-.165-2.38-.457-3.52-.87a16.194 16.194 0 0 1-4.46-2.37c6.61 40 15.31 110.88 26.85 218.42.4 3.75.81 7.58 1.23 11.47.59 5.52 1.19 11.22 1.82 17.13 46.15 1.61 89.37 4.1 128.48 7.32l-2.35-22.11c-3.12-29.06-6.24-60-9.43-89.06-5.52-46.56-11-86.75-15.22-105.35A25 25 0 0 0 761 515.07c.24 0 .48.06.72.08a15.661 15.661 0 0 0 9.52-28.62A24.877 24.877 0 0 0 786 463.81v.01ZM403 610.71c4.79-38.88 10.07-78.54 14.86-107.13-.59.26-1.21.48-1.84.7l-1 .33c-.66.2-1.33.39-2 .55a69.81 69.81 0 0 1-31.87-.35 20.33 20.33 0 0 1-8.34-4.12c1.12 4.44 2.09 8.93 3.07 13.44 1.16 5.36 2.3 10.75 3.66 16.13a158.077 158.077 0 0 1 4.26 26 27.64 27.64 0 0 1-.34 7 25.975 25.975 0 0 1-2.05 6.53c-.06.12-.11.26-.17.38a22.936 22.936 0 0 1-3.37 5.05c-.1.11-.18.23-.28.34a17.049 17.049 0 0 1-12.59 5.87h-26a16.322 16.322 0 0 1-9.8-3.38c-5.93-4.42-9.71-12.67-9-21.8a158.308 158.308 0 0 1 2.33-17.13c.23-1.22.47-2.43.73-3.65.37-1.74.76-3.48 1.19-5.22 2.09-8.33 3.75-16.64 5.7-24.85.19-.82.38-1.65.58-2.47-.816.452-1.657.856-2.52 1.21a27.398 27.398 0 0 1-6.31 1.78 34.216 34.216 0 0 1-4.54.46c-2.83.08-5.67 0-8.51-.12-5.2-.24-10.41-.76-15.56-1.43-6.85-.89-11.69-5.22-14-11.8-.17-.49-.31-1-.48-1.47-1.81-5.47-3.18-11.09-5.09-16.52-.83-2.35-2.43-4.43-3.76-6.61-.14-.23-.29-.46-.43-.69a11.362 11.362 0 0 1-1.36-2.66 2.505 2.505 0 0 1-.1-.47c-.08-2.17-.1-4.33-.1-6.56v-6.92a113.766 113.766 0 0 1 14.36-3.42 147.03 147.03 0 0 1 28-2 93.285 93.285 0 0 1 30.65 5.63 36.796 36.796 0 0 0 11 2.22 34.323 34.323 0 0 0 11-1.22 43.484 43.484 0 0 0 3.08-1c1.16-.44 2.34-.8 3.51-1.18a84.577 84.577 0 0 1 8.4-2.34 28.31 28.31 0 0 1-3.44-33.52 39.88 39.88 0 0 1-9.44-48.07 24.484 24.484 0 0 0-13.09-3.76 24.779 24.779 0 0 0-24.48 21.3 15.54 15.54 0 0 0-27.66 7.09c-5.89-19.54-6.09-36.69-7.71-59.51-.53-7.46-8.86-14-17.37-3.12-20.64 26.52-19.71 67.77-13.9 76.92a25.338 25.338 0 0 0 10 8.83 15.65 15.65 0 0 0-12 25.26 24.897 24.897 0 0 0-20.751 21.312 24.892 24.892 0 0 0 14.491 25.978 15.664 15.664 0 0 0-6.096 17.921 15.661 15.661 0 0 0 15.616 10.699c.25 0 .48 0 .72-.08a25.083 25.083 0 0 0 24.74 24.37h.05c-6.2 27-15.41 99.34-23.4 170.71v.15c-.83 7.43-1.65 14.86-2.45 22.22-.86 7.93-1.61 15.75-2.32 23.47 39-3.22 82.06-5.72 128.07-7.34.92-9.9 1.88-20 3-30.28 2.74-25.2 7.3-66 12.43-107.66h.02Z"/>
   </g>
   <defs>
      <clipPath id="a">
         <path fill="#fff" d="M0 0h1024v1024H0z"/>
      </clipPath>
   </defs>
</svg>

<svg width="1024" height="1024" viewBox="0 0 1024 1024" fill="none" xmlns="http://www.w3.org/2000/svg">
<g clip-path="url(#clip0_2_1920)">
<path d="M512 1024C794.77 1024 1024 794.77 1024 512C1024 229.23 794.77 0 512 0C229.23 0 0 229.23 0 512C0 794.77 229.23 1024 512 1024Z" fill="#54688C"/>
<path d="M352 509.2C358.872 509.257 365.633 507.461 371.57 504C369.78 514.09 363.67 521.95 355.96 524C356.05 529.95 355.88 535.86 355.4 541.68C354.81 548.8 354.51 555.91 353.4 562.57C352.62 567.28 351.4 567.48 350.54 562.57C349.41 555.95 349.14 548.8 348.54 541.68C348.06 535.86 347.89 529.95 347.99 524C340.28 522 334.16 514.09 332.38 504C338.332 507.47 345.111 509.267 352 509.2ZM668 524C667.9 529.95 668.07 535.86 668.55 541.68C669.14 548.8 669.41 555.96 670.55 562.57C671.39 567.48 672.63 567.28 673.41 562.57C674.51 555.91 674.81 548.8 675.41 541.68C675.89 535.86 676.06 529.95 675.96 524C683.67 522 689.78 514.09 691.57 504C685.608 507.416 678.856 509.212 671.985 509.212C665.114 509.212 658.362 507.416 652.4 504C654.21 514.07 660.33 521.93 668 524ZM487.13 434.36C489.36 446.93 496.98 456.74 506.59 459.29C506.47 466.71 506.68 474.08 507.28 481.29C508.01 490.17 508.35 499.09 509.76 507.34C510.76 513.47 512.36 513.22 513.32 507.34C514.69 499.04 515.07 490.17 515.8 481.29C516.4 474.04 516.61 466.66 516.49 459.29C526.1 456.74 533.73 446.93 535.96 434.36C528.526 438.618 520.108 440.859 511.54 440.859C502.973 440.859 494.554 438.618 487.12 434.36H487.13ZM623 720.95C623.987 730.177 624.957 739.297 625.91 748.31C589.49 747.14 551.35 746.52 512.04 746.52C472.04 746.52 433.31 747.16 396.34 748.37C397.23 738.83 398.15 729.13 399.22 719.37C409.78 622 422.9 515.7 431.44 478.56H431.37C424.089 478.545 417.047 475.956 411.49 471.251C405.933 466.547 402.217 460.029 401 452.85C400.724 451.307 400.564 449.746 400.52 448.18C400.22 448.18 399.93 448.26 399.62 448.28C395.367 448.481 391.164 447.286 387.652 444.877C384.141 442.468 381.513 438.977 380.169 434.937C378.824 430.896 378.838 426.527 380.206 422.494C381.575 418.462 384.224 414.988 387.75 412.6C381.616 409.893 376.524 405.269 373.24 399.423C369.955 393.577 368.655 386.824 369.534 380.176C370.413 373.529 373.423 367.345 378.114 362.553C382.805 357.762 388.923 354.62 395.55 353.6C393.333 350.75 391.949 347.34 391.554 343.75C391.158 340.161 391.767 336.531 393.311 333.267C394.855 330.002 397.275 327.23 400.301 325.259C403.327 323.287 406.84 322.194 410.45 322.1C405.382 319.614 401.073 315.816 397.97 311.1C390.73 299.69 389.57 248.25 415.3 215.19C425.9 201.56 436.3 209.78 436.95 219.08C438.95 247.54 439.21 268.92 446.56 293.28C447.146 289.537 448.817 286.049 451.364 283.245C453.912 280.442 457.226 278.446 460.895 277.506C464.565 276.565 468.429 276.721 472.012 277.953C475.594 279.186 478.736 281.441 481.05 284.44C482.09 277.097 485.743 270.376 491.34 265.51C496.936 260.644 504.099 257.959 511.516 257.949C518.932 257.94 526.102 260.605 531.711 265.457C537.32 270.308 540.991 277.02 542.05 284.36C544.375 281.379 547.52 279.143 551.099 277.927C554.678 276.711 558.535 276.568 562.194 277.516C565.853 278.464 569.155 280.462 571.693 283.263C574.232 286.063 575.896 289.546 576.48 293.28C583.83 268.92 584.08 247.54 586.09 219.08C586.75 209.78 597.09 201.57 607.74 215.19C633.47 248.25 632.31 299.69 625.07 311.1C621.969 315.817 617.659 319.616 612.59 322.1C616.2 322.194 619.714 323.287 622.74 325.259C625.766 327.23 628.185 330.002 629.729 333.267C631.274 336.531 631.882 340.161 631.487 343.75C631.091 347.34 629.708 350.75 627.49 353.6C634.118 354.62 640.236 357.762 644.926 362.553C649.617 367.345 652.628 373.529 653.506 380.176C654.385 386.824 653.085 393.577 649.801 399.423C646.516 405.269 641.425 409.893 635.29 412.6C638.816 414.988 641.465 418.462 642.834 422.494C644.203 426.527 644.216 430.896 642.872 434.937C641.528 438.977 638.9 442.468 635.388 444.877C631.876 447.286 627.674 448.481 623.42 448.28C623.11 448.28 622.82 448.22 622.52 448.18C622.472 449.798 622.298 451.409 622 453C620.758 460.052 617.103 466.453 611.662 471.106C606.22 475.76 599.329 478.377 592.17 478.51C597.49 501.7 604.26 551.82 611.17 609.87C615.17 646.11 619.07 684.71 623 720.95ZM587.62 435.82C597.21 433.82 603.62 428.44 606.62 419.25C608.88 412.48 610.88 405.62 612.72 398.72C613.72 394.81 614.21 390.84 618.6 388.9C619.45 388.52 619.99 386.57 620.02 385.33C620.17 379.76 620.08 374.18 620.08 367.5C609.29 365.74 598.78 363.41 588.13 362.44C568.13 360.62 548.27 361.44 529.06 368.73C519.02 372.561 507.921 372.561 497.88 368.73C485.623 364.269 472.703 361.903 459.66 361.73C441.84 361.4 424.29 363.02 406.83 368.45C406.83 374.45 406.71 379.86 406.92 385.26C406.97 386.59 408.03 387.91 408.74 389.17C410.48 392.17 412.82 395.02 413.96 398.27C416.55 405.65 418.31 413.27 420.89 420.7C423.76 428.92 429.79 434.3 438.34 435.42C448.273 436.86 458.305 437.509 468.34 437.36C474.166 437.321 479.892 435.844 485.01 433.06C482.25 444.29 480.01 455.7 477.19 467.12C474.523 477.757 472.747 488.598 471.88 499.53C470.54 516.39 481.51 530.92 495.3 530.92H527.71C541.5 530.92 552.47 516.39 551.13 499.53C550.264 488.598 548.488 477.757 545.82 467.12C542.72 454.77 540.49 442.39 537.44 430.25C540.463 432.744 544.023 434.504 547.84 435.39C560.889 438.602 574.505 438.749 587.62 435.82ZM786 463.82C786.007 457.894 783.893 452.161 780.042 447.657C776.191 443.152 770.855 440.174 765 439.26C766.782 436.971 767.893 434.232 768.208 431.349C768.524 428.465 768.032 425.551 766.787 422.931C765.543 420.311 763.594 418.088 761.16 416.511C758.725 414.934 755.9 414.065 753 414C757.063 412.003 760.516 408.954 763 405.17C768.81 396.02 769.74 354.76 749.1 328.25C740.6 317.32 732.26 323.91 731.73 331.37C730.11 354.19 729.92 371.37 724.02 390.88C723.553 387.884 722.22 385.091 720.185 382.844C718.15 380.596 715.501 378.993 712.567 378.232C709.632 377.471 706.539 377.585 703.668 378.56C700.797 379.535 698.274 381.329 696.41 383.72C695.564 377.84 692.634 372.46 688.153 368.56C683.673 364.659 677.94 362.498 672 362.47C667.081 362.468 662.275 363.949 658.21 366.72C662.059 374.61 663.196 383.55 661.446 392.153C659.696 400.756 655.156 408.54 648.53 414.3C651.55 419.398 652.896 425.313 652.382 431.216C651.867 437.119 649.516 442.712 645.66 447.21C649.941 447.977 654.162 449.05 658.29 450.42C659.21 450.72 660.13 451.02 661.04 451.36C666.43 453.379 672.228 454.065 677.94 453.36C680.71 453.019 683.43 452.347 686.04 451.36C699.63 446.18 713.61 445.08 727.73 445.89C729.624 445.997 731.52 446.137 733.42 446.31C738.56 446.78 743.67 447.65 748.81 448.58C752.2 449.19 755.6 449.82 759.04 450.38C759.04 455.74 759.11 460.21 758.99 464.68V465.06C758.89 466.06 758.5 467.28 757.89 467.54C756.967 467.945 756.147 468.552 755.491 469.318C754.835 470.083 754.359 470.986 754.1 471.96C753.73 473.06 753.48 474.24 753.17 475.42C751.7 480.95 750.09 486.42 748.28 491.88C747.999 492.772 747.665 493.647 747.28 494.5C746.198 496.84 744.633 498.925 742.689 500.619C740.746 502.313 738.466 503.578 736 504.33L735.77 504.42H735.67C734.796 504.702 733.908 504.939 733.01 505.13C731.677 505.417 730.344 505.667 729.01 505.88C719.742 507.414 710.258 507.04 701.14 504.78C698.272 504.101 695.585 502.812 693.26 501C693.11 500.88 692.94 500.78 692.8 500.66C693.68 504.18 694.47 507.73 695.25 511.29C696.1 515.19 696.94 519.1 697.82 523.02C698.36 525.42 698.92 527.82 699.52 530.23C701.28 537.287 702.55 544.458 703.32 551.69C703.48 553.2 703.65 554.69 703.77 556.22C704.59 566.58 699.61 575.82 692.27 579.59C690.023 580.766 687.527 581.387 684.99 581.4H659C650.94 581.4 644.1 575.2 641.39 566.6C640.336 563.248 639.938 559.723 640.22 556.22C640.915 547.45 642.34 538.753 644.48 530.22C646.35 522.76 647.88 515.3 649.58 507.92C649.97 506.24 650.35 504.56 650.76 502.92C648.921 503.95 646.959 504.743 644.92 505.28L644.55 505.4L644.27 505.45C642.016 505.997 639.709 506.302 637.39 506.36H633.39C626.678 506.243 619.98 505.722 613.33 504.8C612.13 504.635 610.95 504.343 609.81 503.93C608.209 503.378 606.704 502.579 605.35 501.56C611.96 541.56 620.66 612.44 632.2 719.98C632.6 723.73 633.01 727.56 633.43 731.45C634.02 736.97 634.62 742.67 635.25 748.58C681.4 750.19 724.62 752.68 763.73 755.9L761.38 733.79C758.26 704.73 755.14 673.79 751.95 644.73C746.43 598.17 740.95 557.98 736.73 539.38C743.116 539.196 749.188 536.574 753.702 532.054C758.215 527.533 760.827 521.456 761 515.07C761.24 515.07 761.48 515.13 761.72 515.15C765.134 515.315 768.508 514.359 771.328 512.427C774.147 510.495 776.257 507.694 777.336 504.451C778.415 501.208 778.403 497.701 777.302 494.465C776.202 491.229 774.073 488.443 771.24 486.53C775.633 484.574 779.365 481.388 781.984 477.355C784.604 473.323 785.998 468.618 786 463.81V463.82ZM403 610.71C407.79 571.83 413.07 532.17 417.86 503.58C417.27 503.84 416.65 504.06 416.02 504.28L415.02 504.61C414.36 504.81 413.69 505 413.02 505.16C402.512 507.502 391.604 507.383 381.15 504.81C378.089 504.1 375.234 502.689 372.81 500.69C373.93 505.13 374.9 509.62 375.88 514.13C377.04 519.49 378.18 524.88 379.54 530.26C381.681 538.793 383.106 547.49 383.8 556.26C383.984 558.598 383.87 560.951 383.46 563.26C383.068 565.518 382.378 567.713 381.41 569.79C381.35 569.91 381.3 570.05 381.24 570.17C380.346 571.995 379.212 573.693 377.87 575.22C377.77 575.33 377.69 575.45 377.59 575.56C376.021 577.367 374.089 578.824 371.92 579.835C369.751 580.847 367.393 581.39 365 581.43H339C335.453 581.398 332.013 580.212 329.2 578.05C323.27 573.63 319.49 565.38 320.2 556.25C320.664 550.502 321.442 544.783 322.53 539.12C322.76 537.9 323 536.69 323.26 535.47C323.63 533.73 324.02 531.99 324.45 530.25C326.54 521.92 328.2 513.61 330.15 505.4C330.34 504.58 330.53 503.75 330.73 502.93C329.914 503.382 329.073 503.786 328.21 504.14C326.186 504.984 324.067 505.581 321.9 505.92C320.399 506.174 318.882 506.328 317.36 506.38C314.53 506.46 311.69 506.38 308.85 506.26C303.65 506.02 298.44 505.5 293.29 504.83C286.44 503.94 281.6 499.61 279.29 493.03C279.12 492.54 278.98 492.03 278.81 491.56C277 486.09 275.63 480.47 273.72 475.04C272.89 472.69 271.29 470.61 269.96 468.43C269.82 468.2 269.67 467.97 269.53 467.74C268.962 466.917 268.504 466.023 268.17 465.08C268.122 464.927 268.088 464.77 268.07 464.61C267.99 462.44 267.97 460.28 267.97 458.05V451.13C272.678 449.68 277.475 448.538 282.33 447.71C291.578 446.152 300.954 445.482 310.33 445.71C320.79 445.855 331.152 447.758 340.98 451.34C344.512 452.638 348.222 453.387 351.98 453.56C355.689 453.751 359.404 453.339 362.98 452.34C364.014 452.047 365.04 451.713 366.06 451.34C367.22 450.9 368.4 450.54 369.57 450.16C372.328 449.236 375.132 448.455 377.97 447.82C373.881 443.339 371.339 437.662 370.72 431.628C370.101 425.593 371.436 419.518 374.53 414.3C367.833 408.479 363.269 400.592 361.559 391.885C359.85 383.179 361.092 374.151 365.09 366.23C361.17 363.764 356.631 362.46 352 362.47C346.04 362.483 340.285 364.644 335.789 368.556C331.293 372.468 328.357 377.869 327.52 383.77C325.665 381.364 323.145 379.554 320.272 378.565C317.399 377.576 314.299 377.451 311.355 378.206C308.412 378.96 305.754 380.561 303.711 382.81C301.668 385.059 300.329 387.858 299.86 390.86C293.97 371.32 293.77 354.17 292.15 331.35C291.62 323.89 283.29 317.35 274.78 328.23C254.14 354.75 255.07 396 260.88 405.15C263.365 408.934 266.818 411.983 270.88 413.98C267.98 414.045 265.155 414.914 262.721 416.491C260.286 418.068 258.338 420.291 257.093 422.911C255.848 425.531 255.356 428.445 255.672 431.329C255.988 434.212 257.098 436.951 258.88 439.24C253.588 440.085 248.71 442.616 244.971 446.455C241.232 450.295 238.833 455.239 238.129 460.552C237.426 465.865 238.456 471.264 241.067 475.944C243.678 480.624 247.73 484.337 252.62 486.53C249.788 488.443 247.659 491.229 246.558 494.465C245.457 497.701 245.446 501.208 246.524 504.451C247.603 507.694 249.713 510.495 252.533 512.427C255.352 514.359 258.726 515.315 262.14 515.15C262.39 515.15 262.62 515.15 262.86 515.07C263.043 521.539 265.719 527.688 270.33 532.23C274.941 536.771 281.129 539.355 287.6 539.44H287.65C281.45 566.44 272.24 638.78 264.25 710.15V710.3C263.42 717.73 262.6 725.16 261.8 732.52C260.94 740.45 260.19 748.27 259.48 755.99C298.48 752.77 341.54 750.27 387.55 748.65C388.47 738.75 389.43 728.65 390.55 718.37C393.29 693.17 397.85 652.37 402.98 610.71H403Z" fill="white"/>
</g>
<defs>
<clipPath id="clip0_2_1920">
<rect width="1024" height="1024" fill="white"/>
</clipPath>
</defs>
</svg>
